X:614
T: "Der Holzhauer"
N: Z1294
O: Europa, Mitteleuropa, Deutschland, Boehmen
R: Handwerker -, Bauern - Lied
M: 3/4
L: 1/8
K: Bb
 | d2dcdB | dcdef2
d2dfce | dcdef2
g2f2=e2 | f4z2
def2df | e2ced2
Bcd2Bd | ceAcB2
Bcd2Bd | ceAcB2
dBdefd | B4z2

